!!!COM: Haydn, Franz Joseph
!!!OTL: String Quartet in E-flat Major
!!!OPS: Opus 33
!!!ONM: No. 2
!!!OMD: Finale: Presto
!!!OMV: 4
!!!SCT: H III:38
!!!SCA: Thematisch-bibliographisches Werkevererzeichnis (A. van Hoboken)
!!!YOR: Trautwein Edition
!!!ENC: Frances Bennion
!!!CDT: 1732/3/31/-1809/5/31/
!!!CNT: Oesterreich
!!!YEC: Copyright (c) 1994, 2000 Center for Computer Assisted Research in the Humanities
!!!YEM: Rights to all derivative editions reserved.
!!!YEM: Refer to licensing agreement for further details.
!!!YEN: United States of America
**kern	**kern	**kern	**kern
*k[b-e-a-]	*k[b-e-a-]	*k[b-e-a-]	*k[b-e-a-]
*E-:	*E-:	*E-:	*E-:
*clefF4	*clefC3	*clefG	*clefG
*M6/8	*M6/8	*M6/8	*M6/8
2r	2r	2r	2r
8r	8r	8r	8r
8r	8r	8r	8gg
=1	=1	=1	=1
4E-	4g	4b-	4gg
8r	8r	8r	8aa-
4BB-	4f	4a-	8ff
.	.	.	8gg
8r	8r	8r	8aa-
=2	=2	=2	=2
4EE-	4e-	4g	8bb-
.	.	.	8gg
2r	2r	2r	8ee-
.	.	.	8ee-
.	.	.	8r
.	.	.	8ff
=3	=3	=3	=3
2.r	4b-	4dd	4ff
.	8r	8r	8gg
.	4f	4a	8ee-
.	.	.	8dd
.	8r	8r	8cc
=4	=4	=4	=4
2.r	4d	4f	8b-
.	.	.	8a
.	2r	2r	8b-
.	.	.	8b-
.	.	.	8r
.	.	.	8b
=5	=5	=5	=5
2.A-	4.A-	4.e-	4b
.	.	.	8cc
.	4.B-	4.d	8a-
.	.	.	8g
.	.	.	8f
=6	=6	=6	=6
4G	4B-	4e-	8b-
.	.	.	8cc
2r	2r	2r	8dd
.	.	.	8ee-
.	.	.	8ff
.	.	.	8gg
=7	=7	=7	=7
4F	4A-	4cc	4aa-
8r	8r	8r	8r
4B-	4B-	8a-	8ff
.	.	8g	8ee-
8r	8r	8f	8dd
=8	=8	=8	=8
4E-	4E-	4e-	4ee-
2r	2r	4.r	4.r
.	.	8dd	8ff
=9	=9	=9	=9
[2.B-	[2.B-	4dd	4ff
.	.	8ee-	8gg
.	.	8b-	8dd
.	.	8cc	8ee-
.	.	8cc#	8ee
=10	=10	=10	=10
4B-]	4B-]	4dd	8ff
.	.	.	8dd
2r	2r	4.r	8b-
.	.	.	8b-
.	.	.	8r
.	.	8g	8bb-
=11	=11	=11	=11
[2.E-	[2.e-	4g	4bb-
.	.	8f#	8aa
.	.	8g	8bb-
.	.	8f	8aa-
.	.	8d	8ff
=12	=12	=12	=12
4E-]	4e-]	4g	8bb-
.	.	.	8gg
4.r	4.r	4.r	8ee-
.	.	.	8ee-
.	.	.	8r
8G	8e-	8e-	8bb-
=13	=13	=13	=13
4.A-	4.e-	4.e-	8bb
.	.	.	8ccc
.	.	.	8ccc
4.G	4.cc	4.e	8ccc
.	.	.	8bb-
.	.	.	8bb-
=14	=14	=14	=14
4F	4cc	4f	4.bb-
4.r	4.r	4.r	.
.	.	.	4aa-
8D	8b-	8b-	8ff
=15	=15	=15	=15
4.E-	4.e-	4.b-	8ff
.	.	.	8gg
.	.	.	8gg
4.AA-	4.A-	8b-	8gg
.	.	8cc	8aa-
.	.	8a-	8ff
=16	=16	=16	=16
[2.BB-	4.B-	4.g	4.ee-
.	4.d	4f	4dd
.	.	8f	8b-
=17	=17	=17	=17
2.BB-_	2.e-	2.g-	8a
.	.	.	8b-
.	.	.	8cc
.	.	.	8dd
.	.	.	8ee-
.	.	.	8a
=18	=18	=18	=18
2.BB-_	2.d	2.f	8b-
.	.	.	8dd
.	.	.	8ff
.	.	.	8aa
.	.	.	8bb-
.	.	.	8b-
=19	=19	=19	=19
2.BB-_	2.e-	2.g-	8a
.	.	.	8b-
.	.	.	8cc
.	.	.	8dd
.	.	.	8ee-
.	.	.	8a
=20	=20	=20	=20
2.BB-_	2.d	2.f	8b-
.	.	.	8dd
.	.	.	8ff
.	.	.	8aa
.	.	.	8bb-
.	.	.	8b-
=21	=21	=21	=21
2.BB-]	2.e-	2.g-	8a
.	.	.	8b-
.	.	.	8cc
.	.	.	8dd
.	.	.	8ee-
.	.	.	8a
=22	=22	=22	=22
8BB-	[2.B-	4f	4b-
8BB-	.	.	.
8BB-	.	4.r	4.r
4BB-	.	.	.
8r	.	8d	8b-
=23	=23	=23	=23
8BB-	2.B-_	8d	8b-
8BB-	.	8e-	8cc
8BB-	.	4.r	4.r
4BB-	.	.	.
8r	.	8e-	8cc
=24	=24	=24	=24
8BB-	2.B-_	8e-	8cc
8BB-	.	8f	8dd
8BB-	.	4.r	4.r
4BB-	.	.	.
8r	.	8b-	8dd
=25	=25	=25	=25
4BB-	2.B-_	8b-	8dd
.	.	8cc	8ee-
8r	.	8cc	8ee-
4BB-	.	8cc	8ee-
.	.	8cc#	8ee
8r	.	8cc#	8ee
=26	=26	=26	=26
4BB-	2.B-_	8cc#	8ee
.	.	8dd	8ff
8r	.	8dd	8ff
4BB-	.	8dd	8ff
.	.	8ee-	8gg
8r	.	8ee-	8gg
=27	=27	=27	=27
[2.BB-	2.B-_	2.ee	2.gg
=28	=28	=28	=28
4BB-]	4B-]	4ff	4aa-
2r	2r	2r	4.r
.	.	.	8gg
=29	=29	=29	=29
4E-	4g	4b-	4gg
8r	8r	8r	8aa-
4BB-	4f	4a-	8ff
.	.	.	8gg
8r	8r	8r	8aa-
=30	=30	=30	=30
4EE-	4e-	4g	8bb-
.	.	.	8gg
2r	2r	2r	8ee-
.	.	.	8ee-
.	.	.	8r
.	.	.	8ff
=31	=31	=31	=31
2.r	4b-	4dd	4ff
.	8r	8r	8gg
.	4f	4a	8ee-
.	.	.	8dd
.	8r	8r	8cc
=32	=32	=32	=32
2.r	4d	4f	8b-
.	.	.	8a
.	2r	2r	8b-
.	.	.	8b-
.	.	.	8r
.	.	.	8b
=33	=33	=33	=33
2.A-	4.A-	4.e-	4b
.	.	.	8cc
.	4.B-	4.d	8a-
.	.	.	8g
.	.	.	8f
=34	=34	=34	=34
4G	4B-	4e-	8b-
.	.	.	8cc
2r	2r	2r	8dd
.	.	.	8ee-
.	.	.	8ff
.	.	.	8gg
=35	=35	=35	=35
4A-	4A-	4cc	4aa-
8r	8r	8r	8r
4B-	4B-	8a-	8ff
.	.	8g	8ee-
8r	8r	8f	8dd
=36	=36	=36	=36
4E-	4E-	4e-	4ee-
2r	2r	2r	2r
=37	=37	=37	=37
[2.E-	4E-	4.e-	4ee-
.	2r	.	4.r
.	.	4.cc	.
.	.	.	8ee-
=38	=38	=38	=38
2.E-_	2.r	4b-	8dd-
.	.	.	8ee-
.	.	8a-	8cc
.	.	4g	8b-
.	.	.	8cc
.	.	8f	8a-
=39	=39	=39	=39
2.E-_	4E-	8e-	8g
.	.	8f	8a-
.	2r	8g	8b-
.	.	4g	4b-
.	.	8cc	8ee-
=40	=40	=40	=40
2.E-_	2.r	4b-	8dd-
.	.	.	8ee-
.	.	8a-	8cc
.	.	4g	8b-
.	.	.	8cc
.	.	8f	8a-
=41	=41	=41	=41
2.E-]	2.B-	4.e-	8g
.	.	.	8a-
.	.	.	8b-
.	.	4.d-	8e-
.	.	.	8f
.	.	.	8g
=42	=42	=42	=42
4.E-	4.A-	4.c	[2a-
4.E-	4.A-	4.c	.
.	.	.	8a-] 8A-
.	.	.	8a-
=43	=43	=43	=43
4.E-	4.B-	4.d-	8g
.	.	.	8a-
.	.	.	8b-
4.E-	4.B-	4.d-	8e-
.	.	.	8f
.	.	.	8g
=44	=44	=44	=44
4.E-	4.A-	4.c	[2A-
4.E-	4.A-	4.c	.
.	.	.	8A-] 8a-
.	.	.	8a-
=45	=45	=45	=45
4.E-	4.B-	4.d-	8g
.	.	.	8a-
.	.	.	8b-
4.E-	4.B-	4.d-	8e-
.	.	.	8f
.	.	.	8g
=46	=46	=46	=46
4.E-	4.A-	4.c	8a-
.	.	.	8b-
.	.	.	8cc
4.E-	4.A-	4.c	8a-
.	.	.	8b-
.	.	.	8cc
=47	=47	=47	=47
4.E-	4.B-	4.d-	8g
.	.	.	8a-
.	.	.	8b-
4.E-	4.B-	4.d-	8e-
.	.	.	8f
.	.	.	8g
=48	=48	=48	=48
4.E-	4.A-	4.c	[2a-
4.E-	4.A-	4.c	.
.	.	.	8a-]
.	.	.	8a-
=49	=49	=49	=49
2.C	4.B-	4.B-	8g
.	.	.	8a-
.	.	.	8b-
.	4.G	4.B-	8c
.	.	.	8d
.	.	.	8e
=50	=50	=50	=50
4.C	4.F	4.A-	[2f
4.C	4.F	4.A-	.
.	.	.	8f]
.	.	.	8f
=51	=51	=51	=51
4.C	4.G	4.B-	8e
.	.	.	8f
.	.	.	8g
4.C	4.G	4.B-	8c
.	.	.	8d
.	.	.	8e
=52	=52	=52	=52
4.C	4.F	4.A-	8f
.	.	.	8g
.	.	.	8a-
4.C	4.F	4.A-	8f
.	.	.	8g
.	.	.	8a-
=53	=53	=53	=53
4.C	4.G	4.B-	8e
.	.	.	8f
.	.	.	8g
4.C	4.G	4.B-	8c
.	.	.	8d
.	.	.	8e
=54	=54	=54	=54
4.C	4.F	4.A-	[2f
4.C	4.F	4.A-	.
.	.	.	8f]
.	.	.	8ee-
=55	=55	=55	=55
4.BB-	4.f	4.a-	8dd
.	.	.	8ee-
.	.	.	8ff
4.BB-	4.f	4.a-	8b-
.	.	.	8cc
.	.	.	8dd
=56	=56	=56	=56
4.BB-	4.e-	4.g	4.ee- 4.e-
4.BB-	4.e-	4.g	4ee-
.	.	.	8ee-
=57	=57	=57	=57
4.BB-	4.f	4.a-	8dd
.	.	.	8ee-
.	.	.	8ff
4.BB-	4.f	4.a-	8b-
.	.	.	8cc
.	.	.	8dd
=58	=58	=58	=58
4.BB-	4.e-	4.g	8ee-
.	.	.	8ff
.	.	.	8gg
4.BB-	4.e-	4.g	8ee-
.	.	.	8ff
.	.	.	8gg
=59	=59	=59	=59
4.BB-	4.f	4.a-	8dd
.	.	.	8ee-
.	.	.	8ff
4.BB-	4.f	4.a-	8b-
.	.	.	8cc
.	.	.	8dd
=60	=60	=60	=60
4.E-	4.e-	4.g	8ee-
.	.	.	8ff
.	.	.	8gg
4.A-	4.e-	8e-	8cc
.	.	8f	8dd
.	.	8g	8ee-
=61	=61	=61	=61
4.F	4.f	4.a-	8ff
.	.	.	8gg
.	.	.	8aa-
4.B-	4.f	8f	8dd
.	.	8g	8ee-
.	.	8a-	8ff
=62	=62	=62	=62
4.G	4.g	4.b-	8gg
.	.	.	8aa-
.	.	.	8bb-
4.c	4.g	8g	8ee-
.	.	8a-	8ff
.	.	8b-	8gg
=63	=63	=63	=63
4.C	4.c	4.e-	8aa-
.	.	.	8bb-
.	.	.	8ccc
4.D	4.d	4.f	8bb-
.	.	.	8ccc
.	.	.	8aa-
=64	=64	=64	=64
4.E-	4.e-	4.g	8gg
.	.	.	8ff
.	.	.	8ee-
4.C	4a	4.ee-	8eee-
.	.	.	8ccc
.	8cc	.	8aa
=65	=65	=65	=65
[2.BB-	4.b-	4.dd	8bb-
.	.	.	8ddd
.	.	.	8bb-
.	4a	4.ee-	8eee-
.	.	.	8ccc
.	8cc	.	8aa
=66	=66	=66	=66
2.BB-]	4.b-	4.dd	8bb-
.	.	.	8ddd
.	.	.	8bb-
.	4a	4.ee-	8eee-
.	.	.	8ccc
.	8cc	.	8aa
=67	=67	=67	=67
4.BB-	4.b-	4.dd	8bb-
.	.	.	8ccc
.	.	.	8ddd
4.BB-	4.cc	4.ee-	8ff
.	.	.	8gg
.	.	.	8aa
=68	=68	=68	=68
4.BB-	4.b-	4.dd	8bb-
.	.	.	8ccc
.	.	.	8ddd
4.BB-	4.cc	4.ee-	8ff
.	.	.	8gg
.	.	.	8aa
=69	=69	=69	=69
4BB-	4b-	4dd	4bb-
2r	2r	2r	2r
=70	=70	=70	=70
4C	4e-	4ee-	4aa
2r	2r	2r	2r
=71	=71	=71	=71
4D	4B-	4ff	4aa-
2r	2r	2r	2r
=72	=72	=72	=72
2.r	2.r	2.r	2r
.	.	.	8r
.	.	.	8gg
=73	=73	=73	=73
4E-	4g	4b-	4gg
8r	8r	8r	8aa-
4BB-	4f	4a-	8ff
.	.	.	8gg
8r	8r	8r	8aa-
=74	=74	=74	=74
4EE-	4e-	4g	8bb-
.	.	.	8gg
2r	2r	2r	8ee-
.	.	.	8ee-
.	.	.	8r
.	.	.	8ff
=75	=75	=75	=75
2.r	4b-	4dd	4ff
.	8r	8r	8gg
.	4f	4a	8ee-
.	.	.	8dd
.	8r	8r	8cc
=76	=76	=76	=76
2.r	4d	4f	8b-
.	.	.	8a
.	2r	2r	8b-
.	.	.	8b-
.	.	.	8r
.	.	.	8b
=77	=77	=77	=77
2.A-	4.A-	4.e-	4b
.	.	.	8cc
.	4.B-	4.d	8a-
.	.	.	8g
.	.	.	8f
=78	=78	=78	=78
4G	4B-	4e-	8b-
.	.	.	8cc
2r	2r	2r	8dd
.	.	.	8ee-
.	.	.	8ff
.	.	.	8gg
=79	=79	=79	=79
4A-	4A-	4cc	4aa-
8r	8r	8r	8r
4B-	4B-	8a-	8ff
.	.	8g	8ee-
8r	8r	8f	8dd
=80	=80	=80	=80
4E-	4E-	4e-	4ee-
2r	2r	4.r	4.r
.	.	8dd	8ff
=81	=81	=81	=81
[2.B-	[2.B-	4dd	4ff
.	.	8ee-	8gg
.	.	8b-	8dd
.	.	8cc	8ee-
.	.	8cc#	8ee
=82	=82	=82	=82
4B-]	4B-]	4dd	8ff
.	.	.	8dd
2r	2r	4.r	8b-
.	.	.	8b-
.	.	.	8r
.	.	8g	8bb-
=83	=83	=83	=83
[2.E-	[2.e-	4g	4bb-
.	.	8f#	8aa
.	.	8g	8bb-
.	.	8f	8aa-
.	.	8d	8ff
=84	=84	=84	=84
4E-]	4e-]	4g	8bb-
.	.	.	8gg
4.r	4.r	4.r	8ee-
.	.	.	8ee-
.	.	.	8r
8G	8e-	8e-	8bb-
=85	=85	=85	=85
4.A-	4.e-	4.e-	8bb
.	.	.	8ccc
.	.	.	8ccc
4.G	[4.cc	4.e	8ccc
.	.	.	8bb-
.	.	.	8bb-
=86	=86	=86	=86
4.F	4cc]	4f	4.bb-
.	4.r	4.r	.
4r	.	.	4aa-
8D	8b-	8b-	8ff
=87	=87	=87	=87
4.E-	4.e-	4.b-	8ff
.	.	.	8gg
.	.	.	8gg
4.AA-	4.A-	8b-	8gg
.	.	8cc	8aa-
.	.	8a-	8ff
=88	=88	=88	=88
[2.BB-	4.B-	4.g	4.ee-
.	4.d	4f	4dd
.	.	8f	8b-
=89	=89	=89	=89
2.BB-_	2.e-	2.g-	8a
.	.	.	8b-
.	.	.	8cc
.	.	.	8dd
.	.	.	8ee-
.	.	.	8a
=90	=90	=90	=90
2.BB-_	2.d	2.f	8b-
.	.	.	8dd
.	.	.	8ff
.	.	.	8aa
.	.	.	8bb-
.	.	.	8b-
=91	=91	=91	=91
2.BB-_	2.e-	2.g-	8a
.	.	.	8b-
.	.	.	8cc
.	.	.	8dd
.	.	.	8ee-
.	.	.	8a
=92	=92	=92	=92
2.BB-_	2.d	2.f	8b-
.	.	.	8dd
.	.	.	8ff
.	.	.	8aa
.	.	.	8bb-
.	.	.	8b-
=93	=93	=93	=93
2.BB-]	2.e-	2.g-	8a
.	.	.	8b-
.	.	.	8cc
.	.	.	8dd
.	.	.	8ee-
.	.	.	8a
=94	=94	=94	=94
8BB-	[2.B-	4f	4b-
8BB-	.	.	.
8BB-	.	4.r	4.r
4BB-	.	.	.
8r	.	8d	8b-
=95	=95	=95	=95
8BB-	2.B-_	8d	8b-
8BB-	.	8e-	8cc
8BB-	.	4.r	4.r
4BB-	.	.	.
8r	.	8e-	8cc
=96	=96	=96	=96
8BB-	2.B-_	8e-	8cc
8BB-	.	8f	8dd
8BB-	.	4.r	4.r
4BB-	.	.	.
8r	.	8b-	8dd
=97	=97	=97	=97
4BB-	2.B-_	8b-	8dd
.	.	8cc	8ee-
8r	.	8cc	8ee-
4BB-	.	8cc	8ee-
.	.	8cc#	8ee
8r	.	8cc#	8ee
=98	=98	=98	=98
4BB-	2.B-_	8cc#	8ee
.	.	8dd	8ff
8r	.	8dd	8ff
4BB-	.	8dd	8ff
.	.	8ee-	8gg
8r	.	8ee-	8gg
=99	=99	=99	=99
[2.BB-	2.B-_	2.ee	2.gg
=100	=100	=100	=100
4BB-]	4B-]	4ff	4aa-
2r	2r	2r	4.r
.	.	.	8gg
=101	=101	=101	=101
4E-	4g	4b-	4gg
8r	8r	8r	8aa-
4BB-	4f	4a-	8ff
.	.	.	8gg
8r	8r	8r	8aa-
=102	=102	=102	=102
4EE-	4e-	4g	8bb-
.	.	.	8gg
2r	2r	2r	8ee-
.	.	.	8ee-
.	.	.	8r
.	.	.	8ff
=103	=103	=103	=103
2.r	4b-	4dd	4ff
.	8r	8r	8gg
.	4f	4a	8ee-
.	.	.	8dd
.	8r	8r	8cc
=104	=104	=104	=104
2.r	4d	4f	8b-
.	.	.	8a
.	2r	2r	8b-
.	.	.	8b-
.	.	.	8r
.	.	.	8b
=105	=105	=105	=105
2.A-	4.A-	4.e-	4b
.	.	.	8cc
.	4.B-	4.d	8a-
.	.	.	8g
.	.	.	8f
=106	=106	=106	=106
4G	4B-	4e-	8b-
.	.	.	8cc
2r	2r	2r	8dd
.	.	.	8ee-
.	.	.	8ff
.	.	.	8gg
=107	=107	=107	=107
4F	4A-	4cc	4aa-
8r	8r	8r	8r
4B-	4B-	8a-	8ff
.	.	8g	8ee-
8r	8r	8f	8dd
=108	=108	=108	=108
[2.E-	4e-	4.e-	4ee-
.	2r	.	4.r
.	.	4.cc	.
.	.	.	8eee-
=109	=109	=109	=109
2.E-_	2.r	4b-	8ddd
.	.	.	8eee-
.	.	8a-	8ccc
.	.	4g	8bb-
.	.	.	8ccc
.	.	8f	8aa-
=110	=110	=110	=110
2.E-_	4e- 4G	8e-	8gg
.	.	8f	8aa-
.	2r	8g	8bb-
.	.	4g	4bb-
.	.	8cc	8eee-
=111	=111	=111	=111
2.E-_	2.r	4b-	8ddd
.	.	.	8eee-
.	.	8a-	8ccc
.	.	4g	8bb-
.	.	.	8ccc
.	.	8f	8aa-
=112	=112	=112	=112
4E-]	4G 4e-	8e-	8gg
.	.	8f	8aa-
2r	4.r	8g	8bb-
.	.	4g	8bb-
.	.	.	8bb-
.	8ee-	8gg	8bb-
=113	=113	=113	=113
2.r	8dd	8ff	8bb-
.	8ee-	8gg	8bb-
.	8cc	8ee-	8bb-
.	8b-	8dd	8bb-
.	8cc	8ee-	8bb-
.	8a-	8cc	8bb-
=114	=114	=114	=114
2r	8g	8b-	8bb-
.	8a-	8cc	8bb-
.	8f	8a-	8bb-
.	4e-	4g	8bb-
8r	.	.	8bb-
8e-	8g	8b-	8bb-
=115	=115	=115	=115
8d	8f	8b-	8bb-
8e-	8g	8b-	8bb-
8c	8e-	8b-	8bb-
8B-	8d	8b-	8bb-
8c	8e-	8b-	8bb-
8A-	8c	8b-	8bb-
=116	=116	=116	=116
8G	4B-	8b-	8bb-
8A-	.	8cc	8bb-
8F	4.r	8a-	8bb-
8E-	.	8g	8bb-
8F	.	8a-	8bb-
8D	8b-	8f	8bb-
=117	=117	=117	=117
8C	8b-	8e-	8bb-
8C	8a-	8ee-	8ccc
8C	8a-	8ee-	8ddd
8C	4a-	8ee-	8eee-
8C	.	8ee-	8ccc
8C	8r	8ee-	8aa-
=118	=118	=118	=118
8BB-	2r	8dd	8aa-
8BB-	.	8dd	8gg
8BB-	.	8dd	8gg
8BB-	.	8dd	4gg
8BB-	8r	8dd	.
8BB-	8g	8dd	8gg
=119	=119	=119	=119
8AA-	8g	8cc	8gg
8AA-	8f	8cc	8aa-
8AA-	8f	8cc	8bb-
8AA-	4f	8cc	8ccc
8AA-	.	8cc	8aa-
8AA-	8r	8cc	8ff
=120	=120	=120	=120
8GG	2.r	8b-	8ff
8GG	.	8b-	8ee-
8GG	.	8b-	8ee-
4GG	.	8b-	4ee-
.	.	8b-	.
8r	.	8b-	8ee-
=121	=121	=121	=121
4BB-	4f	4a-	8dd
.	.	.	8b-
8r	8r	8r	8bb-
4BB-	4f	4a-	8aa-
.	.	.	8ff
8r	8r	8r	8bb-
=122	=122	=122	=122
4E-	4e-	4g	8gg
.	.	.	8ee-
2r	2r	2r	8b-
.	.	.	8g
.	.	.	8e-
.	.	.	8ee-
=123	=123	=123	=123
4BB-	4f	4dd	8dd
.	.	.	8b-
8r	8r	8r	8bb-
4BB-	4f	4dd	8aa-
.	.	.	8ff
8r	8r	8r	8bb-
=124	=124	=124	=124
4E-	4g	4ee-	8gg
.	.	.	8ee-
2r	2r	2r	8b-
.	.	.	8g
.	.	.	8e-
.	.	.	8gg
=125	=125	=125	=125
4.r	4.r	4.r	8aa-
.	.	.	8gg
.	.	.	8ff
4G	4b-	4b-	8ee
.	.	.	8gg
8r	8r	8r	8aa-
=126	=126	=126	=126
4.r	4.r	4.r	8bb-
.	.	.	8aa-
.	.	.	8gg
4A-	4a-	4cc	8ff
.	.	.	8aa-
8r	8r	8r	8bb-
=127	=127	=127	=127
4.r	4.r	4.r	8ccc
.	.	.	8bb-
.	.	.	8aa-
4A-	4cc	4ff	8ccc
.	.	.	8bb-
8r	8r	8r	8aa-
=128	=128	=128	=128
4A-	4cc	4ff	8ccc
.	.	.	8bb-
8r	8r	8r	8aa-
4A	4cc	4ee-	8gg
.	.	.	8ff
8r	8r	8r	8ee-
=129	=129	=129	=129
8B-	4.b-	2.dd	8dd
8B-	.	.	8ff
8B-	.	.	8aa
8B-	4.f	.	8bb-
8B-	.	.	8ddd
8B-	.	.	8bb-
=130	=130	=130	=130
8B-	2.g-	2.ee-	8aa
8B-	.	.	8ccc
8B-	.	.	8aa
8B-	.	.	8eee-
8B-	.	.	8ccc
8B-	.	.	8aa
=131	=131	=131	=131
8B-	2.f	2.dd	8bb-
8B-	.	.	8dd
8B-	.	.	8ff
8B-	.	.	8bb-
8B-	.	.	8ddd
8B-	.	.	8bb-
=132	=132	=132	=132
8B-	2.g-	2.ee-	8aa
8B-	.	.	8ccc
8B-	.	.	8aa
8B-	.	.	8eee-
8B-	.	.	8ccc
8B-	.	.	8aa
=133	=133	=133	=133
4B-	4f	4dd	4bb-
2r	4.r	4.r	4.r
.	8cc	8ee-	8aa
=134	=134	=134	=134
4B-	8cc	8ee-	8aa
.	8b-	8dd	8bb-
2r	4.r	4.r	4.r
.	8cc	8ee-	8aa
=135	=135	=135	=135
4B-	8cc	8ee-	8aa
.	8b-	8dd	8bb-
2r	4.r	4.r	4.r
.	8cc	8ee-	8aa
=136	=136	=136	=136
4B-	8cc	8ee-	8aa
.	8b-	8dd	8bb-
2r	2r	2r	2r
=137	=137	=137	=137
2.r	2.r	2r	2r
.	.	8r	8r
.	.	8ee	8gg
=138	=138	=138	=138
4B-	4B-	8ee	8gg
.	.	8ff	8aa-
2r	2r	4.r	4.r
.	.	8ee	8gg
=139	=139	=139	=139
4B-	4B-	8ee	8gg
.	.	8ff	8aa-
2r	2r	4.r	4.r
.	.	8ee	8gg
=140	=140	=140	=140
[2.B-	2.B-	2.ee	2.gg
=141	=141	=141	=141
4.B-]	4.D	4.ff	4.aa-
4.r	4.r	4.r	4r
.	.	.	8gg
=142	=142	=142	=142
4E-	4g	4b-	4gg
8r	8r	8r	8aa-
4BB-	4f	4a-	8ff
.	.	.	8gg
8r	8r	8r	8aa-
=143	=143	=143	=143
4EE-	4e-	4g	8bb-
.	.	.	8gg
2r	2r	2r	8ee-
.	.	.	4ee-
.	.	.	8ff
=144	=144	=144	=144
2.r	4b-	4dd	4ff
.	8r	8r	8gg
.	4f	4a	8ee-
.	.	.	8dd
.	8r	8r	8cc
=145	=145	=145	=145
2.r	4d	4f	8b-
.	.	.	8a
.	2r	2r	8b-
.	.	.	4b-
.	.	.	8b
=146	=146	=146	=146
2.A-	4.A-	4.e-	4b
.	.	.	8cc
.	4.B-	4.d	8a-
.	.	.	8g
.	.	.	8f
=147	=147	=147	=147
4G	4B-	4e-	8b-
.	.	.	8cc
2r	2r	2r	8dd
.	.	.	8ee-
.	.	.	8ff
.	.	.	8gg
=148	=148	=148	=148
4F	4.A-	4cc	4aa-
8r	.	8r	8r
4B-	4.B-	8a-	8ff
.	.	8g	8ee-
8r	.	8f	8dd
=149	=149	=149	=149
4E-	4E-	4e-	4ee-
8r	8r	8r	8r
4r	4r	4r	4r
*M2/4	*M2/4	*M2/4	*M2/4
16r	16r	16r	16r
16BB-	16F	16a- 16A-	16cc 16d
=150	=150	=150	=150
4.BB-	4F	4a- 4A-	4d 4cc
.	8d	8f	32b-
.	.	.	16a-
.	.	.	32r
8r	8r	8r	32g
.	.	.	16f
.	.	.	32r
=151	=151	=151	=151
8GG	8B-	8e-	8b-
4r	4r	4r	4r
16r	16r	16r	16r
16AA-	16c	16c	16a- 16A-
=152	=152	=152	=152
4AA-	4c	4c	4A- 4a-
8BB-	8d	8A-	32g
.	.	.	16f
.	.	.	32r
8r	8r	8r	32e-
.	.	.	16d
.	.	.	32r
=153	=153	=153	=153
8EE-	8e-	8G	8e-
8r	8r	8r	8r
8r;	8r;	8r;	8r;
*M6/8	*M6/8	*M6/8	*M6/8
8r	8r	8r	8gg
=154	=154	=154	=154
4E-	4g	4b-	4gg
8r	8r	8r	8aa-
4BB-	4f	4a-	8ff
.	.	.	8gg
8r	8r	8r	8aa-
=155	=155	=155	=155
4EE-	4e-	4g	8bb-
.	.	.	8gg
2r	2r	2r	8ee-
.	.	.	8ee-
.	.	.	4r
=156	=156	=156	=156
2.r	2.r	2.r	2.r
=157	=157	=157	=157
2.r	2.r	2.r	2r
.	.	.	8r
.	.	.	8ff
=158	=158	=158	=158
2.r	4b-	4dd	4ff
.	8r	8r	8gg
.	4f	4a	8ee-
.	.	.	8dd
.	8r	8r	8cc
=159	=159	=159	=159
2.r	4d	4f	8b-
.	.	.	8a
.	2r	2r	8b-
.	.	.	8b-
.	.	.	4r
=160	=160	=160	=160
2.r	2.r	2.r	2.r
=161	=161	=161	=161
2.r	2.r	2.r	2r
.	.	.	8r
.	.	.	8b
=162	=162	=162	=162
2.A-	4.A-	4.e-	4b
.	.	.	8cc
.	4.B-	4.d	8a-
.	.	.	8g
.	.	.	8f
=163	=163	=163	=163
4G	4B-	4e-	8b-
.	.	.	8cc
2r	2r	2r	8dd
.	.	.	8ee-
.	.	.	4r
=164	=164	=164	=164
2.r	2.r	2.r	2.r
=165	=165	=165	=165
2.r	2.r	2.r	2r
.	.	.	8r
.	.	.	8gg
=166	=166	=166	=166
4.AA-	4.c	4.cc	4gg
.	.	.	8aa-
4.BB-	8d	4.a-	8ff
.	8e-	.	8ee-
.	8f	.	8dd
=167	=167	=167	=167
4E-	4e-	4g	4ee-
2r	2r	2r	2r
=168	=168	=168	=168
2.r	2.r	2.r	2.r
=169	=169	=169	=169
2.r	2.r	2.r	2.r
=170	=170	=170	=170
2.r	2.r	2.r	2.r
=171	=171	=171	=171
2.r	2.r	2.r	2r
.	.	.	8r
.	.	.	8gg
=172	=172	=172	=172
4E-	4g	4b-	4gg
8r	8r	8r	8aa-
4BB-	4f	4a-	8ff
.	.	.	8gg
8r	8r	8r	8aa-
=173	=173	=173	=173
4EE-	4e-	4g	8bb-
.	.	.	8gg
2r	2r	2r	8ee-
.	.	.	8ee-
.	.	.	4r
==	==	==	==
*-	*-	*-	*-
!!!RWG1: This file contains only pitch and duration data.
!!!RWG2: Transposing instruments are not transposed.
!!!RWG3: Spines may have incompatible meters.
!!!RWG4: Durations of rests and tied notes may be interpreted.
!!!RWG: Key is interpreted using the Humdrum key tool.
!!!GTL: 6 Quators ("Jungfernquartette")
!!!OPT: The Joke
!!!AFT: stage1
!!!END: 1997/04/15
!!!KEY: 3957534470
!!!EMD: Converted from MuseData to Humdrum Dec 16, 2000, by Andreas Kornstaedt using muse2kern.
!!!EMD: Manual editing by Craig Sapp, Nov 2001, Jan 2012 (merged sections)
